X:17
T:Winster Gallop
R:polka
Z:id:hn-polka-17
M:2/4
L:1/8
K:G
GB GB|GB d2|AB/c/ BA|GB d2|ce g>e|dB d>B|AB/c/ BA|G2 G2:|
|:gf ed|gf ed|gf ed|cB A2|fe d2|fe d2|d2 A>c|BG G2:|
<end>
<start>
